X: 1
T:the First of August
R:Hornpipe
O:England
M:2/4
L:1/8
K:D
A>B A>G|F>G A2|B2 B2|A2 (3FGA|B>c d>B \
|1 c>d e>c|d>e f>g|f2 e2 \
:|2 c>d e>d|f2 d2|d2 (3Ade||
|:f2 f2|e2 e2|d2 d2|c2 c2|\
B>c d>B|c>d e>c|d>e f>g|f2 e2|
A>B A>G|F>G A2|B2 B2|A2 (3FGA|\
B>c d>B|c>d e>d|f2 d2|1 d4 :|2 d2||
